icon-themes/breeze_svg/cmd/32/outlineexpand.svg

<svg viewBox="0 0 32 32" xmlns="http://www.w3.org/2000/svg"><path d="m20 20v6h6v-6zm7 0v7h-7v1h8v-8z" fill="#1d99f3"/><path d="m5.5 4a1.5 1.5 0 0 0 -1.5 1.5 1.5 1.5 0 0 0 1.5 1.5 1.5 1.5 0 0 0 1.5-1.5 1.5 1.5 0 0 0 -1.5-1.5zm5.5 0v1h17v-1zm0 3v1h13v-1zm0 7v1h17v-1zm0 3v1h11v-1zm-5.5 7a1.5 1.5 0 0 0 -1.5 1.5 1.5 1.5 0 0 0 1.5 1.5 1.5 1.5 0 0 0 1.5-1.5 1.5 1.5 0 0 0 -1.5-1.5zm5.5 0v1h7v-1zm0 3v1h7v-1z" fill="#4d4d4d"/></svg>

<svg xmlns="http://www.w3.org/2000/svg" viewBox="0 0 32 32">
 <path 
     style="fill:#1d99f3" 
     d="M 20 20 L 20 26 L 26 26 L 26 20 L 20 20 z M 27 20 L 27 27 L 20 27 L 20 28 L 28 28 L 28 20 L 27 20 z "
     />
 <path 
     style="fill:#4d4d4d" 
     d="M 5.5 4 A 1.5 1.5 0 0 0 4 5.5 A 1.5 1.5 0 0 0 5.5 7 A 1.5 1.5 0 0 0 7 5.5 A 1.5 1.5 0 0 0 5.5 4 z M 11 4 L 11 5 L 28 5 L 28 4 L 11 4 z M 11 7 L 11 8 L 24 8 L 24 7 L 11 7 z M 11 14 L 11 15 L 28 15 L 28 14 L 11 14 z M 11 17 L 11 18 L 22 18 L 22 17 L 11 17 z M 5.5 24 A 1.5 1.5 0 0 0 4 25.5 A 1.5 1.5 0 0 0 5.5 27 A 1.5 1.5 0 0 0 7 25.5 A 1.5 1.5 0 0 0 5.5 24 z M 11 24 L 11 25 L 18 25 L 18 24 L 11 24 z M 11 27 L 11 28 L 18 28 L 18 27 L 11 27 z "
     />
</svg>
